Numix-GalliumOS/16/actions/view-media-lyrics.svg

<svg xmlns="http://www.w3.org/2000/svg" viewBox="0 0 16 16">
 <g>
  <path d="m 12 1 0 2 -11 0 0 -2" style="fill:#888"/>
  <path d="m 8 9 0 2 -7 0 0 -2" style="fill:#888"/>
  <path d="m 12 5 0 2 -11 0 0 -2" style="fill:#888"/>
  <path d="m 8 13 0 2 -7 0 0 -2 z" style="fill:#888"/>
 </g>
 <circle cy="12" cx="12" r="3" style="fill:#ff9800;fill-opacity:1;stroke:none"/>
 <rect width="2" height="12" x="13" y="1" rx="1" style="fill:#ff9800;fill-opacity:1;stroke:none"/>
</svg>

<?xml version="1.0" encoding="UTF-8" standalone="no"?>
<svg
   xmlns:dc="http://purl.org/dc/elements/1.1/"
   xmlns:cc="http://creativecommons.org/ns#"
   xmlns:rdf="http://www.w3.org/1999/02/22-rdf-syntax-ns#"
   xmlns:svg="http://www.w3.org/2000/svg"
   xmlns="http://www.w3.org/2000/svg"
   xmlns:sodipodi="http://sodipodi.sourceforge.net/DTD/sodipodi-0.dtd"
   xmlns:inkscape="http://www.inkscape.org/namespaces/inkscape"
   width="16"
   height="16"
   viewBox="0 0 16 16"
   id="svg2"
   version="1.1"
   inkscape:version="0.91 r"
   sodipodi:docname="view-media-lyrics.svg">
  <metadata
     id="metadata18">
    <rdf:RDF>
      <cc:Work
         rdf:about="">
        <dc:format>image/svg+xml</dc:format>
        <dc:type
           rdf:resource="http://purl.org/dc/dcmitype/StillImage" />
        <dc:title></dc:title>
      </cc:Work>
    </rdf:RDF>
  </metadata>
  <defs
     id="defs16" />
  <sodipodi:namedview
     pagecolor="#ffffff"
     bordercolor="#666666"
     borderopacity="1"
     objecttolerance="10"
     gridtolerance="10"
     guidetolerance="10"
     inkscape:pageopacity="0"
     inkscape:pageshadow="2"
     inkscape:window-width="1547"
     inkscape:window-height="876"
     id="namedview14"
     showgrid="false"
     inkscape:zoom="1"
     inkscape:cx="8"
     inkscape:cy="8"
     inkscape:window-x="53"
     inkscape:window-y="24"
     inkscape:window-maximized="1"
     inkscape:current-layer="svg2" />
  <g
     id="g4203">
    <path
       d="M 12,1 12,3 1,3 1,1 Z"
       id="path6"
       inkscape:connector-curvature="0"
       style="fill:#888888" />
    <path
       d="M 8,9 8,11 1,11 1,9 Z"
       id="path8"
       inkscape:connector-curvature="0"
       style="fill:#888888" />
    <path
       d="M 12,5 12,7 1,7 1,5 Z"
       id="path10"
       inkscape:connector-curvature="0"
       style="fill:#888888" />
    <path
       d="m 8,13 0,2 -7,0 0,-2 z"
       id="path12"
       inkscape:connector-curvature="0"
       style="fill:#888888" />
  </g>
  <circle
     cy="12"
     cx="12"
     style="fill:#ff9800;fill-opacity:1;stroke:none"
     id="path3001"
     r="3" />
  <rect
     style="fill:#ff9800;fill-opacity:1;stroke:none"
     id="rect3005"
     width="2"
     height="12"
     x="13.000001"
     y="1"
     rx="1"
     ry="1" />
</svg>
